X:1
T:Langueur hellas
T:Langueur hellas
T:Tielman Susato
C:Tielman Susato
%%score [ 1 [ 2 3 ] 4 ]
L:1/8
Q:1/4=120
M:2/2
K:F
V:1 treble nm="Soprano" snm="S"
V:2 treble-8 nm="Tenor 1" snm="T 1"
V:3 treble-8 nm="Tenor 2" snm="T 2"
V:4 bass nm="Bass" snm="B"
V:1
 z8 | G8 | D4 G4 | F4 G2 B2- | B2 AG A4 | z2 A4 A2 | B4 G4 | A2 c2 B2 A2- | AG G4 F2 | G8 | %10
w: |Lan-|gueur hel-|las _ _|_ _ _ _|pei- n'an-|gois- s'et|tris- tes- * *||se|
 z2 G4 G2 | G4 F2 D2 | E2 F2 G4 | F2 A4 GF | G4 F2 B2- | BA A4 G2 | A8 | z2 G2 A2 B2 | c2 BA B4 | %19
w: m'ont es-|loin- gne de|plai- san- c'et|li- es- * *|||se|car par en-|vi- e _ jen-|
 A2 A2 G4 | F2 B3 A A2- | A2 G2 A4 | z8 | z8 | z8 | z4 D4 | E2 F2 G4 | F6 F2 | E2 D2 G3 F | %29
w: du- re grant|_ _ _ _|* tour- ment||||car|par en- vi-|e jen-|du- re grant _|
"^b" ED G3 F/E/ F2 | G8 | z2 D2 G2 F2 | G2 A2 B2 G2 | F3 G A2 B2- | BA A4 G2 | A4 z2 A2- | %36
w: _ _ _ _ _ tour-|ment|n'ay- ant es-|poir dau- cun al-|le- * * *|* * * ge-|ment puis-|
 A2 A2 A2 B2 | B2 G2 G2 c2- | cBAG F2 B2- | BAGF G2 A2- | AG G4 F2 | G4 z2 A2- | A2 A2 A2 B2- | %43
w: * que for- tu-|* ne'a me nuy-|* * * * re ne|_ _ _ _ _ ces-||se, puis-|* que for- tu-|
 B2 G2 G2 c2- | cBAG F2 B2- | BAGF G2 A2- | AG G4 F2 | G8 |] %48
w: * ne'a me nuy-|* * * * re ne|_ _ _ _ _ ces-||se.|
V:2
 c8 | G4 c4 | B6 c2 | d6 d/c/d/e/ | f6 ed | e2 f3 edc | B2 B2 c2 cB | AG F2 f4 | _e4 d4 | %9
w: Lan-|gueur hel-|las _|_ _ _ _ _|||* pei- n'an- gois- *|s'et _ tris- tes-||
 B4 z2 c2- | c2 c2 c4 | B2 G2 d2 f2 | e2 d2 B3 c | d2 cB A2 d2- | d2 c2 d3 e | f4 d4- | d4 z2 c2 | %17
w: se m'ont-|_ es- loin-|gne de plai- san-|c'et li- es- *|||* se|_ car|
"^b""^b" d2 e2 f2 ed |"^b" e4 d2 B2 | c2 c2 d2 e2 | dcBA G2 A2 | d4 z2 A2 | B2 c2 defd | e4 d2 d2 | %24
w: par en vi- e- *|* e jen-|du- re grant _|_ _ _ _ _ tour-|ment, car|par en vi- * * *|* e jen|
"^b" c2 B2 e2 c2 | d4 f4 | e2 d4 c2 | A2 BA d4 | z2 d2 B2 B2 |"^b""^b" e2 e2 d4 | z2 G2 c2 B2 | %31
w: du- re grant tour-|ment, grant|_ _ _|* tour- * ment,|jen- du- re|grant tour- ment|n'ay- ant es-|
"^b" c2 d2 e2 d2 | B2 d2 d4- | d8- | d4 d4 | z2 d4 c2 | d2 f3 edc | B2 c3 BAG |"^b" F2 f3 edc | %39
w: poir daul- cun al-|le- * ge-||* ment|puis- que|for- tu- * * *|* ne'a _ _ _|_ me _ _ _|
 B2 _e4 d2 | c4 d4 | B2 d4 d2 | d2 f3 edc | B2 c3 BAG | F2 f3 edc | B2 _e4 d2 | c4 d4 | B8 |] %48
w: _ nuy- re|ne ces-|se, puis- que|for- tu- * * *|* ne'a _ _ _|_ me _ _ _|_ nuy- re|ne ces-|se.|
V:3
 z8 | z8 | z4 G4 | A4 B4 | c2 d4 cB | c2 d2 z2 d2- | d2 d2 e4 | c4 d3 c | B2 c2 A4 | G8 | %10
w: ||Lan-|gueur hel-|las _ _ _|_ _ pei-|* n'an- gois-|s'et tris- *|* tes- *|se|
 z4 z2 G2- | G2 G2 B4 | A4 G2 G2 | A4 F2 B2- | B2 G2 A2 d2- | dc A2 B4 | A8 | z8 | z8 | %19
w: m'ont|_ es- loin-|gne de plai-|san- c'et li-|* es _ _|_ _ _ _|se|||
 z2 A2 B2 c2 | d4 c2 BA | B4 A2 A2 | G4 F2 B2- | BAAG/A/ BAGF | GF B4 A2 | G3 F/E/ D4 | %26
w: Car par en-|vi- * * *|* e jen-|du- re grant|_ _ _ _ _ _ _ _ _||tour- * * ment,|
 z2 A2 B2 c2 | d3 c B2 A2 | z2 B2 G2 G2 | c4 A4 | G4 z4 | z4 z2 D2 | G2 F2 G3 A | B2 A2 F2 G2 | %34
w: car par en-|vi- * * e|jen- du- re|grant tour-|ment|n'ay-|ant es- poir _|_ daul- cun al-|
 A4 B4 | A8 | z2 d4 d2 | d2 _e4 c2 | c2 d3 cBA | G2 c3 BAG | F2 G2 A4 | G4 z4 | z2 d4 d2 | %43
w: le- ge-|ment|puis- que|for- tu ne'a|me nuy- * * *|re ne _ _ _|ces- * *|se,|puis- que|
 d2 _e4 c2 | c2 d3 cBA | G2 c3 BAG | F2 G2 A4 | G8 |] %48
w: for- tu- ne'a|me nuy- * * *|re ne _ _ _|ces- * *|se.|
V:4
 z8 | z8 | G,8 |"^#" D,4 G,4 | F,8 | z2 D,4 D,2 | G,4 C,2 C,2 | F,4 D,4 |"^b" E,2 C,2 D,4 | %9
w: ||Lan-|gueur hel-|las|pei- n'an-|gois- s'et tris-|tes- *||
 G,,4 C,4 | z2 C,4 C,2 |"^b" E,4 D,2 B,,2 |"^b" C,2 D,2 E,4 |"^b" D,2 F,4 E,D, |"^b" E,4 D,2 B,,2 | %15
w: * se|m'ont es-|loin- gne de|plai- san- c'et|li- es- * *||
 F,4 G,4 | D,4 F,4- |"^b" F,2 E,2 D,4 | C,4 z4 | z8 | D,4 E,2 F,2 | G,3 F, D,2 F,2 | %22
w: |se, et|_ li- es-|se,||car per en-|vi- * * e|
"^b" E,4 D,2 D,2 | C,4 B,,4 |"^b" E,4 C,4 | B,,2 B,4 A,2 |"^b" G,2 F,2 E,4 | D,4 D,4 | %28
w: jen du- re|rant _|_ tour-|ment, jen du-|re grant tour-|ment, jen-|
"^b" C,2 B,,2 E,4 | C,4 D,3 C, | B,,2 C,2 z2 G,,2 | C,2 B,,2 C,2 D,2 |"^b" E,2 D,2 G,,2 G,,2 | %33
w: du- re grant|_ tour- *|* ment n'ay-|ant es- poir daul-|cun al- le- ge-|
 D,4 z2 G,2 | G,F,F,E, G,2 G,2 | D,4 z2 D,2- |"^#" D,2 D,2 D,2 G,2- |"^b" G,F,E,D, C,2 C,2 | %38
w: ment, al-|le- * * * * ge-|ment puis-|* que for- tu-|* * * * ne'a me|
 F,3 E, D,2 D,2 |"^b" E,4 C,2 F,2- |"^b" F,2 E,2 D,4 |"^#" G,,4 z2 D,2- | D,2 D,2 D,2 G,2- | %43
w: nuy- * * re|ne ces- *||se, puis-|* que for- tu-|
"^b" G,F,E,D, C,2 C,2 | F,3 E, D,2 D,2 |"^b" E,4 C,2 F,2- |"^b" F,2 E,2 D,4 | G,,8 |] %48
w: * * * * ne'a me|nuy- * * re|ne ces- *||se.|

